X:1
T: The Stubbed Toe
C: Larry Cusick
M: C|
K: D
B,E~E2 B,E~E2  | GEFD EDB,A, | B,E~E2 =CEE2 | GEFA B2Bc |
 dfec dBAF | GEFD EDB,A, | B,E~E2 =CEB,E | A,=CB,G, A,4 :|
E2EF ABB2 | dBcA Bdef | gefd edBA | F2BA FEDB, | 
E2EF ABB2 | dBcA Bdef | g3a gefd | BAFD E4 :|
